packages/tokens/icons/heartFilled/size16Px.svg

<svg viewBox="0 0 16 16" fill="none" xmlns="http://www.w3.org/2000/svg" width="1em" height="1em"><path d="M13.9483 3.33258C12.4737 1.64 9.99639 1.54739 8.41516 3.12578L7.99999 3.54001L7.58482 3.12578C6.00359 1.54739 3.52624 1.64 2.05169 3.33258C0.577147 5.02516 0.663666 7.67759 2.24509 9.25534L2.25977 9.27001L7.29353 14.2948C7.6839 14.6845 8.31608 14.6845 8.70647 14.2948L13.7404 9.27001L13.7551 9.25534C15.3363 7.67759 15.4228 5.02516 13.9483 3.33258Z" fill="currentColor"/></svg>

<svg xmlns="http://www.w3.org/2000/svg" fill="none" viewBox="0 0 16 16" width="1em" height="1em"><path fill="currentColor" d="M13.948 3.333c-1.474-1.693-3.952-1.786-5.533-.207L8 3.54l-.415-.414c-1.581-1.579-4.059-1.486-5.533.207C.577 5.025.664 7.678 2.245 9.255l.015.015 5.034 5.025a1 1 0 0 0 1.412 0L13.74 9.27l.015-.015c1.581-1.577 1.668-4.23.193-5.922Z"/></svg>
